X:2
T:Horse's Bransle
R:bransle
M:2/4
L:1/8
K:G
G>A BB | cB Ac | BA GF | E2 D2 |
G>A BB | cB Ac | BG AF | G4 ::
dc/B/ AB | cB/A/ GB | AG FG | A3 d |
dc/B/ AB | cB/A/ GB | AG GF | G4 ::
K:Gdor
BA/G/ BA/G/ | FG A2 | DE FG | AB AG |
BA/G/ BA/G/ | FG A2 | DE ^FG | G^F G2 :|
